X:564
T:Falls of Lorna
D:Wallochmor Ceilidh Band
Z:Nigel Gatherer
L:1/8
M:2/4
K:Am
B/d/ | e2       e/f/e/d/ | eA  AB/c/ | d2       d/e/d/B/ | dG G
B/d/ | e2       e/f/e/d/ | e>f ga    | g/f/e/d/ gB       | A2 A :|
e/g/ | a2       a>g      | ae  e>f   | g>a      g/f/e/d/ | gd d
e/g/ | a2       a>g      | ae  ea    | g/f/e/d/ gB       | A2 A
e/g/ | a2       a>g      | ae  e>f   | g>a      g/f/e/d/ | gd dg
     | e/f/g/e/ a/g/f/e/ | ae  ea    | g/f/e/d/ gB       | A2 A |]
<end>
<start>
